src/objects/sound/1F4E2.svg

<svg id="emoji" viewBox="0 0 72 72" xmlns="http://www.w3.org/2000/svg">
  <g id="grid">
    <path fill="#b3b3b3" d="M68,4V68H4V4H68m4-4H0V72H72V0Z"/>
    <path fill="none" stroke="#00a5ff" stroke-miterlimit="10" stroke-width="0.1" d="M12.923,10.9583H59.0769A1.9231,1.9231,0,0,1,61,12.8814V59.0352a1.9231,1.9231,0,0,1-1.9231,1.9231H12.9231A1.9231,1.9231,0,0,1,11,59.0352V12.8813A1.923,1.923,0,0,1,12.923,10.9583Z"/>
    <rect x="16" y="4" rx="2.2537" width="40" height="64" fill="none" stroke="#00a5ff" stroke-miterlimit="10" stroke-width="0.1"/>
    <rect x="16" y="4" rx="2.2537" width="40" height="64" transform="translate(72) rotate(90)" fill="none" stroke="#00a5ff" stroke-miterlimit="10" stroke-width="0.1"/>
    <circle cx="36" cy="36" r="29" fill="none" stroke="#00a5ff" stroke-miterlimit="10" stroke-width="0.1"/>
  </g>
  <g id="color">
    <circle cx="59.3832" cy="36.38" r="5" fill="#3F3F3F" stroke="#3F3F3F" stroke-miterlimit="10" stroke-width="2"/>
    <path fill="#d0cfce" stroke="none" d="M57.7385,11.3752l-16.435,13.346h-28.712c-1.6548,0.005-2.995,1.3452-3,3v16.692 c0.005,1.6548,1.3452,2.995,3,3h28.712l16.436,13.128L57.7385,11.3752z"/>
    <line x1="18.7508" x2="18.7508" y1="25.3332" y2="46.5832" fill="#d0cfce" stroke="none"/>
    <polygon fill="#9b9b9a" stroke="none" points="18.6869,24.5114 11.1519,24.9482 9.623,26.8593 9.5684,45.0418 11.6979,47.4989 18.5231,47.4443"/>
    <path fill="#9b9b9a" stroke="none" d="M27.7502,47.7464v12.2934c0,1.5088-1.1175,2.7319-2.4962,2.7319h-4.9924 c-1.3785,0-2.4962-1.2231-2.4962-2.7319V47.7464"/>
  </g>
  <g id="hair"/>
  <g id="skin"/>
  <g id="skin-shadow"/>
  <g id="line">
    <path fill="none" stroke="#000000" stroke-linecap="round" stroke-linejoin="round" stroke-width="2" d="M57.7385,11.3752 l-16.435,13.346h-28.712c-1.6548,0.005-2.995,1.3452-3,3v16.692c0.005,1.6548,1.3452,2.995,3,3h28.712l16.436,13.128 L57.7385,11.3752z"/>
    <line x1="18.7508" x2="18.7508" y1="25.3332" y2="46.5832" fill="none" stroke="#000000" stroke-linecap="round" stroke-linejoin="round" stroke-width="2"/>
    <path fill="none" stroke="#000000" stroke-linecap="round" stroke-linejoin="round" stroke-width="2" d="M26.7508,51.4447v9 c0,1.1046-0.8954,2-2,2h-4c-1.1045,0-2-0.8954-2-2v-9"/>
    <path fill="none" stroke="#000000" stroke-linecap="round" stroke-linejoin="round" stroke-width="2" d="M61.6145,31.9073 c1.6486,0.8173,2.782,2.5175,2.782,4.4823c0,1.9659-1.1346,3.6667-2.7846,4.4836"/>
  </g>
</svg>

<svg viewBox="0 0 72 72" xmlns="http://www.w3.org/2000/svg"><path fill="#b3b3b3" d="M68 4v64H4V4h64m4-4H0v72h72V0z"/><path fill="none" stroke="#00a5ff" stroke-miterlimit="10" stroke-width=".1" d="M12.923 10.958h46.154A1.923 1.923 0 0161 12.881v46.154a1.923 1.923 0 01-1.923 1.923H12.923A1.923 1.923 0 0111 59.035V12.881a1.923 1.923 0 011.923-1.923z"/><rect x="16" y="4" rx="2.254" width="40" height="64" fill="none" stroke="#00a5ff" stroke-miterlimit="10" stroke-width=".1"/><rect x="16" y="4" rx="2.254" width="40" height="64" transform="rotate(90 36 36)" fill="none" stroke="#00a5ff" stroke-miterlimit="10" stroke-width=".1"/><circle cx="36" cy="36" r="29" fill="none" stroke="#00a5ff" stroke-miterlimit="10" stroke-width=".1"/><g stroke-linecap="round" stroke-miterlimit="10" stroke-width="6" stroke="#fff" fill="none" stroke-linejoin="round"><path d="M57.739 11.375L41.303 24.721H12.59a3.01 3.01 0 00-3 3v16.692a3.01 3.01 0 003 3h28.712L57.74 60.541l-.002-49.166zM18.751 25.333v21.25"/><path d="M26.75 51.445v9a2 2 0 01-2 2h-4a2 2 0 01-2-2v-9m42.864-19.538a5 5 0 01-.002 8.966"/></g><circle cx="59.383" cy="36.38" r="5" fill="#3F3F3F" stroke="#3F3F3F" stroke-miterlimit="10" stroke-width="2"/><path fill="#d0cfce" d="M57.739 11.375L41.303 24.721H12.59a3.01 3.01 0 00-3 3v16.692a3.01 3.01 0 003 3h28.712L57.74 60.541l-.002-49.166zM18.751 25.333v21.25"/><path fill="#9b9b9a" d="M18.687 24.511l-7.535.437-1.529 1.911-.055 18.183 2.13 2.457 6.825-.055zm9.063 23.235V60.04c0 1.509-1.117 2.732-2.496 2.732h-4.992c-1.379 0-2.497-1.223-2.497-2.732V47.746"/><g fill="none" stroke="#000" stroke-linecap="round" stroke-linejoin="round" stroke-width="2"><path d="M57.739 11.375L41.303 24.721H12.59a3.01 3.01 0 00-3 3v16.692a3.01 3.01 0 003 3h28.712L57.74 60.541l-.002-49.166zM18.751 25.333v21.25"/><path d="M26.75 51.445v9a2 2 0 01-2 2h-4a2 2 0 01-2-2v-9m42.864-19.538a5 5 0 01-.002 8.966"/></g></svg>
